img/comment.svg

<svg width="16" height="14" viewBox="0 0 16 14" fill="none" xmlns="http://www.w3.org/2000/svg">
<path fill-rule="evenodd" clip-rule="evenodd" d="M14.6153 6.54557C14.5204 7.20339 14.2954 7.82861 13.9619 8.40355C13.9869 8.5459 13.9997 8.68979 13.9997 8.83429C13.9997 9.33617 13.8543 9.8165 13.5849 10.2529C13.4504 10.4707 13.4158 10.726 13.4025 10.8946C13.3873 11.0879 13.3924 11.2994 13.4062 11.5025C13.4217 11.7304 13.4497 11.9697 13.4818 12.1954C13.2216 12.1196 12.9395 12.0434 12.6704 11.9826C12.4465 11.9321 12.2174 11.8891 12.0099 11.8676C11.8289 11.849 11.5674 11.8345 11.3335 11.9101C10.8221 12.0754 10.2594 12.1676 9.66636 12.1676C8.96109 12.1676 8.31335 12.0424 7.74559 11.825C7.60903 11.8312 7.47147 11.8343 7.33301 11.8343C6.52993 11.8343 5.75701 11.7287 5.03385 11.5335C6.08516 12.7494 7.81828 13.501 9.66636 13.501C10.3883 13.501 11.0812 13.3901 11.7198 13.1864C11.7209 13.1865 11.723 13.1864 11.726 13.1864C11.7424 13.186 11.7879 13.1851 11.8729 13.1939C12.0067 13.2077 12.1786 13.2385 12.377 13.2833C12.7719 13.3724 13.2157 13.5038 13.5615 13.6136C14.2949 13.8464 15.0056 13.2064 14.8745 12.4621C14.8181 12.1418 14.7595 11.7508 14.7365 11.4122C14.7249 11.2419 14.7236 11.1021 14.7317 10.9995C14.7351 10.957 14.7394 10.9304 14.7421 10.9162C15.1172 10.2949 15.333 9.58744 15.333 8.83429C15.333 7.98526 15.0693 7.20995 14.6153 6.54557Z" fill="#787A80"/>
<path fill-rule="evenodd" clip-rule="evenodd" d="M3.73109 3.29943C2.83245 3.98662 2.33306 4.88871 2.33306 5.83398C2.33306 6.30534 2.45577 6.75932 2.68599 7.18147C2.77367 7.34226 2.79854 7.50812 2.80744 7.6204C2.81714 7.74283 2.8123 7.86867 2.80166 7.98633C2.78034 8.22191 2.72949 8.48884 2.66849 8.75174C2.59715 9.05927 2.50572 9.38724 2.41296 9.69518C2.76512 9.56719 3.15003 9.43601 3.51493 9.32956C3.80985 9.24352 4.10767 9.16886 4.37274 9.12695C4.60108 9.09084 4.93243 9.05536 5.2177 9.15405C5.85792 9.37555 6.57411 9.50065 7.33306 9.50065C8.76451 9.50065 10.0358 9.05621 10.935 8.36854C11.8337 7.68135 12.3331 6.77926 12.3331 5.83398C12.3331 4.88871 11.8337 3.98662 10.935 3.29943C10.0358 2.61176 8.76451 2.16732 7.33306 2.16732C5.90162 2.16732 4.63034 2.61176 3.73109 3.29943ZM2.92116 2.24028C4.07283 1.35959 5.63489 0.833984 7.33306 0.833984C9.03123 0.833984 10.5933 1.35959 11.745 2.24028C12.8973 3.12145 13.6664 4.38602 13.6664 5.83398C13.6664 7.28194 12.8973 8.54652 11.745 9.42769C10.5933 10.3084 9.03123 10.834 7.33306 10.834C6.43769 10.834 5.58244 10.688 4.80591 10.4224C4.80513 10.4246 4.74215 10.4184 4.58098 10.4439C4.39521 10.4733 4.15809 10.5308 3.88836 10.6095C3.35138 10.7662 2.74835 10.9878 2.28902 11.1666C1.49327 11.4763 0.682633 10.712 0.95074 9.89795C1.09284 9.46647 1.26043 8.92121 1.36966 8.45041C1.42468 8.21324 1.46039 8.01384 1.47375 7.86618C1.47839 7.81492 1.47958 7.77756 1.47932 7.7523C1.17246 7.16592 0.99973 6.51748 0.99973 5.83398C0.99973 4.38602 1.76887 3.12145 2.92116 2.24028Z" fill="#787A80"/>
</svg>

<svg width="16" height="14" fill="none" xmlns="http://www.w3.org/2000/svg"><path fill-rule="evenodd" clip-rule="evenodd" d="M14.615 6.546a5.166 5.166 0 01-.653 1.858c.025.142.038.286.038.43 0 .502-.146.982-.415 1.419-.135.218-.17.473-.183.642-.015.193-.01.404.004.607.016.228.044.468.076.693-.26-.075-.542-.152-.812-.212a5.819 5.819 0 00-.66-.115c-.181-.019-.443-.034-.676.042a5.425 5.425 0 01-1.668.258 5.365 5.365 0 01-1.92-.343 8.824 8.824 0 01-2.712-.291C6.085 12.748 7.818 13.5 9.666 13.5a6.76 6.76 0 002.054-.315h.006c.016 0 .062 0 .147.008.134.014.306.044.504.09.395.088.839.22 1.184.33.734.232 1.445-.408 1.313-1.152-.056-.32-.115-.711-.138-1.05a2.96 2.96 0 01-.004-.413.783.783 0 01.01-.083c.375-.621.591-1.329.591-2.082 0-.849-.264-1.624-.718-2.288z" fill="#787A80"/><path fill-rule="evenodd" clip-rule="evenodd" d="M3.731 3.3c-.899.687-1.398 1.589-1.398 2.534 0 .471.123.925.353 1.347.088.161.113.327.121.44.01.122.005.248-.005.365a5.847 5.847 0 01-.134.766c-.07.307-.162.635-.255.943.352-.128.737-.259 1.102-.365.295-.086.593-.161.858-.203.228-.036.56-.072.845.027a6.48 6.48 0 002.115.347c1.432 0 2.703-.445 3.602-1.132.899-.688 1.398-1.59 1.398-2.535 0-.945-.5-1.847-1.398-2.535-.9-.687-2.17-1.132-3.602-1.132-1.431 0-2.703.445-3.602 1.132zm-.81-1.06C4.073 1.36 5.635.834 7.333.834s3.26.526 4.412 1.406c1.152.881 1.921 2.146 1.921 3.594s-.769 2.713-1.921 3.594c-1.152.88-2.714 1.406-4.412 1.406-.895 0-1.75-.146-2.527-.412 0 .003-.064-.004-.225.022-.186.03-.423.087-.693.165a20.59 20.59 0 00-1.599.558c-.796.31-1.606-.455-1.338-1.269.142-.432.31-.977.419-1.448.055-.237.09-.436.104-.584a1.16 1.16 0 00.005-.114A4.117 4.117 0 011 5.834c0-1.448.77-2.713 1.922-3.594z" fill="#787A80"/></svg>
